;FLAVOR:Marlin
;TIME:4688
;Filament used: 4.65981m
;Layer height: 0.16
;MINX:80.144
;MINY:60.144
;MINZ:0.2
;MAXX:139.856
;MAXY:159.856
;MAXZ:22
;Generated with Cura_SteamEngine 4.3.0
M140 S50
M105
M190 S50
M104 S200
M105
M109 S200
M82 ;absolute extrusion mode
M201 X500.00 Y500.00 Z100.00 E5000.00 ;Setup machine max acceleration
M203 X500.00 Y500.00 Z10.00 E50.00 ;Setup machine max feedrate
M204 P500.00 R1000.00 T500.00 ;Setup Print/Retract/Travel acceleration
M205 X8.00 Y8.00 Z0.40 E5.00 ;Setup Jerk
M220 S100 ;Reset Feedrate
M221 S100 ;Reset Flowrate

G28 ;Home

G92 E0 ;Reset Extruder
G1 Z2.0 F3000 ;Move Z Axis up
G1 X10.1 Y20 Z0.28 F5000.0 ;Move to start position
G1 X10.1 Y200.0 Z0.28 F1500.0 E15 ;Draw the first line
G1 X10.4 Y200.0 Z0.28 F5000.0 ;Move to side a little
G1 X10.4 Y20 Z0.28 F1500.0 E30 ;Draw the second line
G92 E0 ;Reset Extruder
G1 Z2.0 F3000 ;Move Z Axis up

G92 E0
G92 E0
G1 F2700 E-5
;LAYER_COUNT:112
;LAYER:0
M107
G0 F9000 X82.71 Y64.102 Z0.2
;TYPE:SKIRT
G1 F2700 E0
G1 F2400 X83.342 Y63.408 E0.03122
G1 X84.03 Y62.771 E0.0624
G1 X84.77 Y62.195 E0.09359
G1 X85.556 Y61.683 E0.12479
G1 X86.383 Y61.241 E0.15598
G1 X87.245 Y60.871 E0.18718
G1 X88.135 Y60.575 E0.21838
G1 X89.047 Y60.357 E0.24957
G1 X89.974 Y60.216 E0.28075
G1 X90.843 Y60.157 E0.30972
G1 X91.162 Y60.148 E0.32034
G1 X91.472 Y60.144 E0.33065
G1 X128.149 Y60.144 E1.55053
G1 X128.307 Y60.145 E1.55578
G1 X129.005 Y60.155 E1.579
G1 X129.941 Y60.209 E1.61019
G1 X130.869 Y60.341 E1.64136
G1 X131.783 Y60.553 E1.67257
G1 X132.675 Y60.842 E1.70376
G1 X133.54 Y61.205 E1.73496
G1 X134.37 Y61.641 E1.76614
G1 X135.161 Y62.146 E1.79735
G1 X135.905 Y62.717 E1.82855
G1 X136.598 Y63.349 E1.85974
G1 X137.235 Y64.037 E1.89093
G1 X137.81 Y64.778 E1.92212
G1 X138.321 Y65.564 E1.9533
G1 X138.763 Y66.392 E1.98452
G1 X139.132 Y67.254 E2.01571
G1 X139.427 Y68.144 E2.04689
G1 X139.645 Y69.056 E2.07808
G1 X139.785 Y69.984 E2.10929
G1 X139.842 Y70.838 E2.13776
G1 X139.851 Y71.151 E2.14818
G1 X139.856 Y71.467 E2.15869
G1 X139.856 Y148.12 E4.70818
G1 X139.855 Y148.256 E4.7127
G1 X139.846 Y148.983 E4.73688
G1 X139.795 Y149.92 E4.76809
G1 X139.663 Y150.848 E4.79927
G1 X139.454 Y151.762 E4.83045
G1 X139.167 Y152.655 E4.86165
G1 X138.805 Y153.521 E4.89287
G1 X138.371 Y154.352 E4.92405
G1 X137.867 Y155.143 E4.95525
G1 X137.298 Y155.888 E4.98643
G1 X136.667 Y156.583 E5.01765
G1 X135.98 Y157.221 E5.04883
G1 X135.241 Y157.798 E5.08002
G1 X134.455 Y158.31 E5.11122
G1 X133.629 Y158.753 E5.14239
G1 X132.767 Y159.125 E5.17362
G1 X131.878 Y159.421 E5.20478
G1 X130.966 Y159.641 E5.23598
G1 X130.039 Y159.782 E5.26717
G1 X129.155 Y159.843 E5.29664
G1 X128.834 Y159.852 E5.30732
G1 X128.526 Y159.856 E5.31757
G1 X91.851 Y159.856 E6.53738
G1 X91.709 Y159.855 E6.54211
G1 X91.011 Y159.846 E6.56532
G1 X90.075 Y159.794 E6.5965
G1 X89.146 Y159.662 E6.62771
G1 X88.232 Y159.452 E6.6589
G1 X87.339 Y159.165 E6.6901
G1 X86.474 Y158.802 E6.7213
G1 X85.643 Y158.368 E6.75248
G1 X84.852 Y157.864 E6.78368
G1 X84.107 Y157.294 E6.81488
G1 X83.413 Y156.663 E6.84608
G1 X82.776 Y155.976 E6.87724
G1 X82.199 Y155.236 E6.90845
G1 X81.687 Y154.45 E6.93965
G1 X81.244 Y153.623 E6.97085
G1 X80.873 Y152.762 E7.00203
G1 X80.577 Y151.872 E7.03323
G1 X80.358 Y150.96 E7.06442
G1 X80.217 Y150.033 E7.09561
G1 X80.157 Y149.144 E7.12525
G1 X80.148 Y148.811 E7.13633
G1 X80.144 Y148.514 E7.1462
G1 X80.144 Y71.818 E9.69712
G1 X80.145 Y71.669 E9.70208
G1 X80.154 Y71.004 E9.7242
G1 X80.207 Y70.068 E9.75538
G1 X80.339 Y69.139 E9.78659
G1 X80.55 Y68.225 E9.81779
G1 X80.838 Y67.333 E9.84897
G1 X81.201 Y66.468 E9.88017
G1 X81.636 Y65.637 E9.91136
G1 X82.14 Y64.847 E9.94253
G1 X82.71 Y64.102 E9.97373
G0 F9000 X83.105 Y64.255
G1 F2400 X83.733 Y63.583 E10.00432
G1 X84.418 Y62.967 E10.03496
G1 X85.154 Y62.414 E10.06558
G1 X85.935 Y61.926 E10.09621
G1 X86.755 Y61.508 E10.12682
G1 X87.609 Y61.163 E10.15746
G1 X88.489 Y60.893 E10.18807
G1 X89.389 Y60.701 E10.21868
G1 X90.303 Y60.587 E10.24932
G1 X90.854 Y60.557 E10.26767
G1 X91.173 Y60.548 E10.27828
G1 X91.472 Y60.544 E10.28823
G1 X128.149 Y60.544 E11.50811
G1 X128.301 Y60.545 E11.51317
G1 X128.999 Y60.555 E11.53639
G1 X129.918 Y60.608 E11.567
G1 X130.829 Y60.741 E11.59762
G1 X131.725 Y60.952 E11.62824
G1 X132.599 Y61.24 E11.65885
G1 X133.446 Y61.603 E11.6895
G1 X134.257 Y62.038 E11.72011
G1 X135.027 Y62.542 E11.75071
G1 X135.751 Y63.111 E11.78134
G1 X136.423 Y63.741 E11.81198
G1 X137.038 Y64.426 E11.8426
G1 X137.591 Y65.162 E11.87322
G1 X138.078 Y65.943 E11.90383
G1 X138.495 Y66.764 E11.93446
G1 X138.84 Y67.618 E11.96509
G1 X139.109 Y68.498 E11.9957
G1 X139.301 Y69.399 E12.02634
G1 X139.414 Y70.312 E12.05693
G1 X139.443 Y70.849 E12.07482
G1 X139.452 Y71.162 E12.08524
G1 X139.456 Y71.467 E12.09538
G1 X139.456 Y148.12 E14.64487
G1 X139.455 Y148.251 E14.64923
G1 X139.446 Y148.978 E14.67341
G1 X139.395 Y149.897 E14.70402
G1 X139.264 Y150.809 E14.73467
G1 X139.054 Y151.705 E14.76528
G1 X138.768 Y152.58 E14.79589
G1 X138.407 Y153.427 E14.82652
G1 X137.973 Y154.239 E14.85714
G1 X137.471 Y155.011 E14.88777
G1 X136.903 Y155.736 E14.9184
G1 X136.275 Y156.409 E14.94902
G1 X135.591 Y157.025 E14.97963
G1 X134.856 Y157.579 E15.01024
G1 X134.076 Y158.068 E15.04086
G1 X133.256 Y158.487 E15.07149
G1 X132.403 Y158.833 E15.10211
G1 X131.523 Y159.104 E15.13273
G1 X130.623 Y159.297 E15.16335
G1 X129.709 Y159.412 E15.19399
G1 X129.144 Y159.443 E15.21281
G1 X128.823 Y159.452 E15.22349
G1 X128.526 Y159.456 E15.23337
G1 X91.851 Y159.456 E16.45318
G1 X91.714 Y159.455 E16.45774
G1 X91.016 Y159.446 E16.48096
G1 X90.097 Y159.394 E16.51157
G1 X89.186 Y159.263 E16.54218
G1 X88.29 Y159.053 E16.57279
G1 X87.415 Y158.766 E16.60342
G1 X86.568 Y158.404 E16.63406
G1 X85.756 Y157.97 E16.66468
G1 X84.985 Y157.468 E16.69528
G1 X84.26 Y156.9 E16.72591
G1 X83.587 Y156.271 E16.75655
G1 X82.972 Y155.587 E16.78714
G1 X82.418 Y154.852 E16.81776
G1 X81.93 Y154.071 E16.84839
G1 X81.511 Y153.251 E16.87902
G1 X81.165 Y152.398 E16.90963
G1 X80.895 Y151.518 E16.94025
G1 X80.702 Y150.617 E16.97089
G1 X80.588 Y149.704 E17.0015
G1 X80.557 Y149.133 E17.02052
G1 X80.548 Y148.8 E17.0316
G1 X80.544 Y148.514 E17.04111
G1 X80.544 Y71.818 E19.59203
G1 X80.545 Y71.675 E19.59678
G1 X80.554 Y71.01 E19.6189
G1 X80.606 Y70.09 E19.64955
G1 X80.738 Y69.179 E19.68017
G1 X80.949 Y68.283 E19.71079
G1 X81.236 Y67.408 E19.74141
G1 X81.599 Y66.562 E19.77203
G1 X82.033 Y65.75 E19.80266
G1 X82.536 Y64.979 E19.83327
G1 X83.105 Y64.255 E19.8639
G0 F9000 X83.499 Y64.411
G1 F2400 X84.125 Y63.761 E19.89392
G1 X84.806 Y63.168 E19.92395
G1 X85.538 Y62.638 E19.95401
G1 X86.313 Y62.175 E19.98403
G1 X87.126 Y61.782 E20.01407
G1 X87.971 Y61.462 E20.04412
G1 X88.84 Y61.219 E20.07413
G1 X89.728 Y61.053 E20.10418
G1 X90.865 Y60.957 E20.14213
G1 X91.184 Y60.948 E20.15274
G1 X91.472 Y60.944 E20.16232
G1 X128.149 Y60.944 E21.38221
G1 X128.295 Y60.945 E21.38706
G1 X128.993 Y60.955 E21.41028
G1 X129.895 Y61.008 E21.44033
G1 X130.788 Y61.14 E21.47036
G1 X131.666 Y61.351 E21.50039
G1 X132.522 Y61.639 E21.53043
G1 X133.349 Y62.001 E21.56046
G1 X134.141 Y62.436 E21.59051
G1 X134.892 Y62.938 E21.62055
G1 X135.595 Y63.505 E21.65059
G1 X136.245 Y64.132 E21.68063
G1 X136.837 Y64.814 E21.71067
G1 X137.367 Y65.545 E21.7407
G1 X137.829 Y66.321 E21.77074
G1 X138.222 Y67.134 E21.80077
G1 X138.54 Y67.979 E21.8308
G1 X138.783 Y68.849 E21.86084
G1 X138.948 Y69.737 E21.89088
G1 X139.043 Y70.861 E21.9284
G1 X139.052 Y71.174 E21.93882
G1 X139.056 Y71.467 E21.94856
G1 X139.056 Y148.12 E24.49805
G1 X139.055 Y148.246 E24.50224
G1 X139.046 Y148.973 E24.52643
G1 X138.995 Y149.875 E24.55647
G1 X138.864 Y150.769 E24.58653
G1 X138.655 Y151.647 E24.61654
G1 X138.369 Y152.504 E24.64659
G1 X138.008 Y153.332 E24.67664
G1 X137.576 Y154.124 E24.70664
G1 X137.075 Y154.876 E24.7367
G1 X136.509 Y155.58 E24.76674
G1 X135.884 Y156.231 E24.79676
G1 X135.203 Y156.825 E24.82681
G1 X134.472 Y157.356 E24.85686
G1 X133.698 Y157.82 E24.88688
G1 X132.885 Y158.214 E24.91693
G1 X132.041 Y158.534 E24.94695
G1 X131.171 Y158.779 E24.97701
G1 X130.284 Y158.945 E25.00702
G1 X129.133 Y159.043 E25.04544
G1 X128.812 Y159.052 E25.05613
G1 X128.526 Y159.056 E25.06564
G1 X91.851 Y159.056 E26.28545
G1 X91.719 Y159.055 E26.28984
G1 X91.021 Y159.046 E26.31306
G1 X90.12 Y158.995 E26.34308
G1 X89.226 Y158.863 E26.37313
G1 X88.348 Y158.654 E26.40315
G1 X87.491 Y158.367 E26.43321
G1 X86.664 Y158.006 E26.46323
G1 X85.871 Y157.573 E26.49328
G1 X85.12 Y157.072 E26.5233
G1 X84.416 Y156.506 E26.55335
G1 X83.765 Y155.88 E26.58339
G1 X83.172 Y155.199 E26.61342
G1 X82.642 Y154.468 E26.64345
G1 X82.178 Y153.693 E26.67349
G1 X81.784 Y152.88 E26.70354
G1 X81.464 Y152.036 E26.73356
G1 X81.22 Y151.166 E26.76362
G1 X81.054 Y150.278 E26.79366
G1 X80.957 Y149.123 E26.83221
G1 X80.948 Y148.79 E26.84329
G1 X80.944 Y148.514 E26.85247
G1 X80.944 Y71.818 E29.40339
G1 X80.945 Y71.68 E29.40798
G1 X80.954 Y71.015 E29.4301
G1 X81.006 Y70.113 E29.46015
G1 X81.138 Y69.22 E29.49018
G1 X81.348 Y68.342 E29.5202
G1 X81.635 Y67.485 E29.55026
G1 X81.997 Y66.658 E29.58029
G1 X82.43 Y65.866 E29.61031
G1 X82.932 Y65.115 E29.64036
G1 X83.499 Y64.411 E29.67042
G1 F2700 E24.67042
;MESH:CaseBOTTOM_V1.stl
G0 F9000 X90.48 Y128.559
G0 X91.565 Y128.559
G0 X91.744 Y148.256
;TYPE:WALL-INNER
G1 F2700 E29.67042
G1 F2400 X91.744 Y148.057 E29.67704
G1 X91.745 Y128.559 E30.32555
G1 X91.744 Y71.943 E32.2086
G1 X91.744 Y71.744 E32.21522
G1 X91.943 Y71.744 E32.2195
G1 X128.256 Y71.744 E33.42728
G1 X128.256 Y148.256 E35.97208
G1 X91.943 Y148.256 E37.17985
G1 X91.744 Y148.256 E37.18414
G0 F9000 X91.344 Y148.656
;TYPE:WALL-OUTER
G1 F2400 X91.345 Y128.559 E37.85257
G1 X91.344 Y71.344 E39.75554
G1 X128.656 Y71.344 E40.99655
G1 X128.656 Y148.656 E43.56795
G1 X91.344 Y148.656 E44.80896
G0 F9000 X91.614 Y148.386
G0 X91.855 Y147.865
G0 X92.134 Y147.866
;TYPE:SKIN
G1 F2400 X92.135 Y128.559 E45.45111
G1 X92.134 Y72.134 E47.32781
G1 X127.866 Y72.134 E48.51626
G1 X127.866 Y147.866 E51.03512
G1 X92.134 Y147.866 E52.22357
G0 F9000 X92.833 Y147.705
G1 F2400 X92.293 Y147.165 E52.24897
G0 F9000 X92.293 Y146.599
G1 F2400 X93.399 Y147.705 E52.30099
G0 F9000 X93.965 Y147.705
G1 F2400 X92.293 Y146.033 E52.37964
G0 F9000 X92.293 Y145.468
G1 F2400 X94.53 Y147.705 E52.48486
G0 F9000 X95.096 Y147.705
G1 F2400 X92.293 Y144.902 E52.61671
G0 F9000 X92.293 Y144.336
G1 F2400 X95.662 Y147.705 E52.77517
G0 F9000 X96.228 Y147.705
G1 F2400 X92.293 Y143.771 E52.96024
G0 F9000 X92.293 Y143.205
G1 F2400 X96.793 Y147.705 E53.17191
G0 F9000 X97.359 Y147.705
G1 F2400 X92.293 Y142.639 E53.4102
G0 F9000 X92.293 Y142.074
G1 F2400 X97.925 Y147.705 E53.67508
G0 F9000 X98.49 Y147.705
G1 F2400 X92.293 Y141.508 E53.96657
G0 F9000 X92.293 Y140.942
G1 F2400 X99.056 Y147.705 E54.28468
G0 F9000 X99.622 Y147.705
G1 F2400 X92.293 Y140.376 E54.62942
G0 F9000 X92.293 Y139.811
G1 F2400 X100.187 Y147.705 E55.00073
G0 F9000 X100.753 Y147.705
G1 F2400 X92.293 Y139.245 E55.39866
G0 F9000 X92.293 Y138.679
G1 F2400 X101.319 Y147.705 E55.82321
G0 F9000 X101.884 Y147.705
G1 F2400 X92.294 Y138.114 E56.27432
G0 F9000 X92.294 Y137.549
G1 F2400 X102.45 Y147.705 E56.75203
G0 F9000 X103.016 Y147.705
G1 F2400 X92.294 Y136.983 E57.25636
G0 F9000 X92.294 Y136.417
G1 F2400 X103.581 Y147.705 E57.78729
G0 F9000 X104.147 Y147.705
G1 F2400 X92.294 Y135.852 E58.34482
G0 F9000 X92.294 Y135.286
G1 F2400 X104.713 Y147.705 E58.92897
G0 F9000 X105.279 Y147.705
G1 F2400 X92.294 Y134.72 E59.53974
G0 F9000 X92.294 Y134.155
G1 F2400 X105.844 Y147.705 E60.17709
G0 F9000 X106.41 Y147.705
G1 F2400 X92.294 Y133.589 E60.84107
G0 F9000 X92.294 Y133.023
G1 F2400 X106.976 Y147.705 E61.53166
G0 F9000 X107.541 Y147.705
G1 F2400 X92.294 Y132.458 E62.24884
G0 F9000 X92.294 Y131.892
G1 F2400 X108.107 Y147.705 E62.99263
G0 F9000 X108.673 Y147.705
G1 F2400 X92.294 Y131.326 E63.76305
G0 F9000 X92.294 Y130.761
G1 F2400 X109.238 Y147.705 E64.56004
G0 F9000 X109.804 Y147.705
G1 F2400 X92.294 Y130.195 E65.38366
G0 F9000 X92.294 Y129.629
G1 F2400 X110.37 Y147.705 E66.2339
G0 F9000 X110.935 Y147.705
G1 F2400 X92.294 Y129.063 E67.11074
G0 F9000 X92.294 Y128.498
G1 F2400 X111.501 Y147.705 E68.01418
G0 F9000 X112.067 Y147.705
G1 F2400 X92.294 Y127.932 E68.94424
G0 F9000 X92.294 Y127.366
G1 F2400 X112.632 Y147.705 E69.9009
G0 F9000 X113.198 Y147.705
G1 F2400 X92.294 Y126.801 E70.88416
G0 F9000 X92.294 Y126.235
G1 F2400 X113.764 Y147.705 E71.89404
G0 F9000 X114.329 Y147.705
G1 F2400 X92.294 Y125.669 E72.93052
G0 F9000 X92.294 Y125.104
G1 F2400 X114.895 Y147.705 E73.9936
G0 F9000 X115.461 Y147.705
G1 F2400 X92.294 Y124.538 E75.08331
G0 F9000 X92.294 Y123.972
G1 F2400 X116.027 Y147.705 E76.19964
G0 F9000 X116.592 Y147.705
G1 F2400 X92.294 Y123.407 E77.34254
G0 F9000 X92.294 Y122.841
G1 F2400 X117.158 Y147.705 E78.51207
G0 F9000 X117.724 Y147.705
G1 F2400 X92.294 Y122.275 E79.70822
G0 F9000 X92.294 Y121.71
G1 F2400 X118.289 Y147.705 E80.93094
G0 F9000 X118.855 Y147.705
G1 F2400 X92.294 Y121.144 E82.18029
G0 F9000 X92.294 Y120.578
G1 F2400 X119.421 Y147.705 E83.45626
G0 F9000 X119.986 Y147.705
G1 F2400 X92.294 Y120.012 E84.75883
G0 F9000 X92.294 Y119.447
G1 F2400 X120.552 Y147.705 E86.088
G0 F9000 X121.118 Y147.705
G1 F2400 X92.294 Y118.881 E87.44379
G0 F9000 X92.294 Y118.315
G1 F2400 X121.683 Y147.705 E88.82618
G0 F9000 X122.249 Y147.705
G1 F2400 X92.294 Y117.75 E90.23518
G0 F9000 X92.294 Y117.184
G1 F2400 X122.815 Y147.705 E91.67079
G0 F9000 X123.38 Y147.705
G1 F2400 X92.294 Y116.618 E93.133
G0 F9000 X92.294 Y116.053
G1 F2400 X123.946 Y147.705 E94.62182
G0 F9000 X124.512 Y147.705
G1 F2400 X92.294 Y115.487 E96.13725
G0 F9000 X92.294 Y114.921
G1 F2400 X125.077 Y147.705 E97.67929
G0 F9000 X125.643 Y147.705
G1 F2400 X92.294 Y114.356 E99.24792
G0 F9000 X92.294 Y113.79
G1 F2400 X126.209 Y147.705 E100.84318
G0 F9000 X126.775 Y147.705
G1 F2400 X92.294 Y113.224 E102.46506
G0 F9000 X92.294 Y112.659
G1 F2400 X127.34 Y147.705 E104.11352
G0 F9000 X127.705 Y147.504
G1 F2400 X92.294 Y112.093 E105.77914
G0 F9000 X92.294 Y111.527
G1 F2400 X127.705 Y146.938 E107.44477
G0 F9000 X127.705 Y146.373
G1 F2400 X92.294 Y110.962 E109.11039
G0 F9000 X92.294 Y110.396
G1 F2400 X127.705 Y145.807 E110.77602
G0 F9000 X127.705 Y145.241
G1 F2400 X92.294 Y109.83 E112.44164
G0 F9000 X92.294 Y109.264
G1 F2400 X127.705 Y144.676 E114.10729
G0 F9000 X127.705 Y144.11
G1 F2400 X92.294 Y108.699 E115.77291
G0 F9000 X92.294 Y108.133
G1 F2400 X127.705 Y143.544 E117.43854
G0 F9000 X127.705 Y142.979
G1 F2400 X92.294 Y107.567 E119.10419
G0 F9000 X92.294 Y107.002
G1 F2400 X127.705 Y142.413 E120.76981
G0 F9000 X127.705 Y141.847
G1 F2400 X92.294 Y106.436 E122.43544
G0 F9000 X92.294 Y105.87
G1 F2400 X127.705 Y141.282 E124.10109
G0 F9000 X127.705 Y140.716
G1 F2400 X92.294 Y105.305 E125.76671
G0 F9000 X92.294 Y104.739
G1 F2400 X127.705 Y140.15 E127.43234
G0 F9000 X127.705 Y139.584
G1 F2400 X92.294 Y104.173 E129.09796
G0 F9000 X92.294 Y103.608
G1 F2400 X127.705 Y139.019 E130.76359
G0 F9000 X127.705 Y138.453
G1 F2400 X92.294 Y103.042 E132.42921
G0 F9000 X92.294 Y102.476
G1 F2400 X127.705 Y137.887 E134.09484
G0 F9000 X127.705 Y137.322
G1 F2400 X92.294 Y101.911 E135.76046
G0 F9000 X92.294 Y101.345
G1 F2400 X127.705 Y136.756 E137.42609
G0 F9000 X127.705 Y136.19
G1 F2400 X92.294 Y100.779 E139.09171
G0 F9000 X92.293 Y100.213
G1 F2400 X127.705 Y135.625 E140.75738
G0 F9000 X127.705 Y135.059
G1 F2400 X92.293 Y99.647 E142.42305
G0 F9000 X92.293 Y99.081
G1 F2400 X127.705 Y134.493 E144.08873
G0 F9000 X127.705 Y133.928
G1 F2400 X92.293 Y98.516 E145.7544
G0 F9000 X92.293 Y97.95
G1 F2400 X127.705 Y133.362 E147.42007
G0 F9000 X127.705 Y132.796
G1 F2400 X92.293 Y97.384 E149.08574
G0 F9000 X92.293 Y96.819
G1 F2400 X127.705 Y132.231 E150.75141
G0 F9000 X127.705 Y131.665
G1 F2400 X92.293 Y96.253 E152.41709
G0 F9000 X92.293 Y95.687
G1 F2400 X127.705 Y131.099 E154.08276
G0 F9000 X127.705 Y130.534
G1 F2400 X92.293 Y95.122 E155.74843
G0 F9000 X92.293 Y94.556
G1 F2400 X127.705 Y129.968 E157.4141
G0 F9000 X127.705 Y129.402
G1 F2400 X92.293 Y93.99 E159.07977
G0 F9000 X92.293 Y93.425
G1 F2400 X127.705 Y128.836 E160.74542
G0 F9000 X127.705 Y128.271
