;FLAVOR:Marlin
;TIME:3217
;Filament used: 2.3358m
;Layer height: 0.16
;MINX:80.144
;MINY:48.482
;MINZ:0.2
;MAXX:139.856
;MAXY:148.195
;MAXZ:8.92
;Generated with Cura_SteamEngine 4.3.0
M140 S50
M105
M190 S50
M104 S200
M105
M109 S200
M82 ;absolute extrusion mode
M201 X500.00 Y500.00 Z100.00 E5000.00 ;Setup machine max acceleration
M203 X500.00 Y500.00 Z10.00 E50.00 ;Setup machine max feedrate
M204 P500.00 R1000.00 T500.00 ;Setup Print/Retract/Travel acceleration
M205 X8.00 Y8.00 Z0.40 E5.00 ;Setup Jerk
M220 S100 ;Reset Feedrate
M221 S100 ;Reset Flowrate

G28 ;Home

G92 E0 ;Reset Extruder
G1 Z2.0 F3000 ;Move Z Axis up
G1 X10.1 Y20 Z0.28 F5000.0 ;Move to start position
G1 X10.1 Y200.0 Z0.28 F1500.0 E15 ;Draw the first line
G1 X10.4 Y200.0 Z0.28 F5000.0 ;Move to side a little
G1 X10.4 Y20 Z0.28 F1500.0 E30 ;Draw the second line
G92 E0 ;Reset Extruder
G1 Z2.0 F3000 ;Move Z Axis up

G92 E0
G92 E0
G1 F2700 E-5
;LAYER_COUNT:57
;LAYER:0
M107
G0 F9000 X82.14 Y53.185 Z0.2
;TYPE:SKIRT
G1 F2700 E0
G1 F2400 X82.71 Y52.44 E0.0312
G1 X83.342 Y51.746 E0.06242
G1 X84.03 Y51.109 E0.0936
G1 X84.77 Y50.533 E0.12479
G1 X85.556 Y50.021 E0.15599
G1 X86.383 Y49.579 E0.18718
G1 X87.245 Y49.209 E0.21838
G1 X88.135 Y48.913 E0.24958
G1 X89.047 Y48.695 E0.28077
G1 X89.974 Y48.554 E0.31195
G1 X90.845 Y48.495 E0.34099
G1 X91.166 Y48.486 E0.35167
G1 X91.474 Y48.482 E0.36191
G1 X128.149 Y48.482 E1.58173
G1 X128.307 Y48.483 E1.58698
G1 X129.005 Y48.493 E1.6102
G1 X129.941 Y48.547 E1.64139
G1 X130.869 Y48.679 E1.67256
G1 X131.783 Y48.891 E1.70377
G1 X132.675 Y49.18 E1.73495
G1 X133.54 Y49.543 E1.76616
G1 X134.37 Y49.979 E1.79734
G1 X135.161 Y50.484 E1.82855
G1 X135.905 Y51.055 E1.85974
G1 X136.598 Y51.687 E1.89094
G1 X137.235 Y52.375 E1.92212
G1 X137.81 Y53.116 E1.95332
G1 X138.321 Y53.902 E1.9845
G1 X138.763 Y54.73 E2.01572
G1 X139.132 Y55.592 E2.04691
G1 X139.427 Y56.482 E2.07809
G1 X139.645 Y57.394 E2.10928
G1 X139.785 Y58.322 E2.14049
G1 X139.843 Y59.183 E2.1692
G1 X139.852 Y59.503 E2.17984
G1 X139.856 Y59.812 E2.19012
G1 X139.856 Y136.459 E4.73941
G1 X139.855 Y136.595 E4.74393
G1 X139.846 Y137.322 E4.76812
G1 X139.795 Y138.259 E4.79933
G1 X139.663 Y139.187 E4.8305
G1 X139.454 Y140.101 E4.86169
G1 X139.167 Y140.994 E4.89289
G1 X138.805 Y141.86 E4.9241
G1 X138.371 Y142.691 E4.95529
G1 X137.867 Y143.482 E4.98648
G1 X137.298 Y144.227 E5.01766
G1 X136.667 Y144.922 E5.04888
G1 X135.98 Y145.56 E5.08007
G1 X135.241 Y146.137 E5.11125
G1 X134.455 Y146.649 E5.14245
G1 X133.629 Y147.092 E5.17362
G1 X132.767 Y147.464 E5.20485
G1 X131.878 Y147.76 E5.23601
G1 X130.966 Y147.98 E5.26722
G1 X130.039 Y148.121 E5.2984
G1 X129.155 Y148.182 E5.32788
G1 X128.834 Y148.191 E5.33856
G1 X128.526 Y148.195 E5.3488
G1 X91.851 Y148.195 E6.56862
G1 X91.709 Y148.194 E6.57334
G1 X91.011 Y148.185 E6.59656
G1 X90.075 Y148.133 E6.62774
G1 X89.146 Y148.001 E6.65895
G1 X88.232 Y147.791 E6.69014
G1 X87.339 Y147.504 E6.72134
G1 X86.474 Y147.141 E6.75254
G1 X85.643 Y146.707 E6.78372
G1 X84.852 Y146.203 E6.81491
G1 X84.107 Y145.633 E6.84611
G1 X83.413 Y145.002 E6.87731
G1 X82.776 Y144.315 E6.90847
G1 X82.199 Y143.575 E6.93968
G1 X81.687 Y142.789 E6.97088
G1 X81.244 Y141.962 E7.00208
G1 X80.873 Y141.101 E7.03327
G1 X80.577 Y140.211 E7.06446
G1 X80.358 Y139.299 E7.09566
G1 X80.217 Y138.372 E7.12684
G1 X80.157 Y137.483 E7.15648
G1 X80.148 Y137.15 E7.16756
G1 X80.144 Y136.853 E7.17744
G1 X80.144 Y60.156 E9.72839
G1 X80.145 Y60.007 E9.73335
G1 X80.154 Y59.342 E9.75547
G1 X80.207 Y58.406 E9.78665
G1 X80.339 Y57.477 E9.81786
G1 X80.55 Y56.563 E9.84906
G1 X80.838 Y55.671 E9.88023
G1 X81.201 Y54.806 E9.91143
G1 X81.636 Y53.975 E9.94263
G1 X82.14 Y53.185 E9.9738
G0 F9000 X82.536 Y53.317
G1 F2400 X83.105 Y52.593 E10.00442
G1 X83.733 Y51.921 E10.03502
G1 X84.418 Y51.305 E10.06566
G1 X85.154 Y50.752 E10.09628
G1 X85.935 Y50.264 E10.12691
G1 X86.755 Y49.846 E10.15752
G1 X87.609 Y49.501 E10.18815
G1 X88.489 Y49.231 E10.21877
G1 X89.389 Y49.039 E10.24938
G1 X90.303 Y48.925 E10.28001
G1 X90.856 Y48.895 E10.29843
G1 X91.177 Y48.886 E10.30911
G1 X91.474 Y48.882 E10.31899
G1 X128.149 Y48.882 E11.53881
G1 X128.301 Y48.883 E11.54386
G1 X128.999 Y48.893 E11.56708
G1 X129.918 Y48.946 E11.5977
G1 X130.829 Y49.079 E11.62832
G1 X131.725 Y49.29 E11.65893
G1 X132.599 Y49.578 E11.68954
G1 X133.446 Y49.941 E11.72019
G1 X134.257 Y50.376 E11.7508
G1 X135.027 Y50.88 E11.78141
G1 X135.751 Y51.449 E11.81204
G1 X136.423 Y52.079 E11.84267
G1 X137.038 Y52.764 E11.87329
G1 X137.591 Y53.5 E11.90391
G1 X138.078 Y54.281 E11.93452
G1 X138.495 Y55.102 E11.96515
G1 X138.84 Y55.956 E11.99578
G1 X139.109 Y56.836 E12.02639
G1 X139.301 Y57.737 E12.05703
G1 X139.414 Y58.65 E12.08763
G1 X139.443 Y59.194 E12.10575
G1 X139.452 Y59.514 E12.1164
G1 X139.456 Y59.812 E12.12631
G1 X139.456 Y136.459 E14.6756
G1 X139.455 Y136.59 E14.67995
G1 X139.446 Y137.317 E14.70414
G1 X139.395 Y138.236 E14.73475
G1 X139.264 Y139.148 E14.76539
G1 X139.054 Y140.044 E14.796
G1 X138.768 Y140.919 E14.82662
G1 X138.407 Y141.766 E14.85724
G1 X137.973 Y142.578 E14.88787
G1 X137.471 Y143.35 E14.9185
G1 X136.903 Y144.075 E14.94913
G1 X136.275 Y144.748 E14.97974
G1 X135.591 Y145.364 E15.01036
G1 X134.856 Y145.918 E15.04097
G1 X134.076 Y146.407 E15.07159
G1 X133.256 Y146.826 E15.10222
G1 X132.403 Y147.172 E15.13284
G1 X131.523 Y147.443 E15.16346
G1 X130.623 Y147.636 E15.19408
G1 X129.709 Y147.751 E15.22471
G1 X129.144 Y147.782 E15.24354
G1 X128.823 Y147.791 E15.25422
G1 X128.526 Y147.795 E15.26409
G1 X91.851 Y147.795 E16.48391
G1 X91.714 Y147.794 E16.48847
G1 X91.016 Y147.785 E16.51168
G1 X90.097 Y147.733 E16.5423
G1 X89.186 Y147.602 E16.57291
G1 X88.29 Y147.392 E16.60352
G1 X87.415 Y147.105 E16.63415
G1 X86.568 Y146.743 E16.66478
G1 X85.756 Y146.309 E16.69541
G1 X84.985 Y145.807 E16.72601
G1 X84.26 Y145.239 E16.75664
G1 X83.587 Y144.61 E16.78728
G1 X82.972 Y143.926 E16.81787
G1 X82.418 Y143.191 E16.84848
G1 X81.93 Y142.41 E16.87911
G1 X81.511 Y141.59 E16.90974
G1 X81.165 Y140.737 E16.94036
G1 X80.895 Y139.857 E16.97097
G1 X80.702 Y138.956 E17.00162
G1 X80.588 Y138.043 E17.03222
G1 X80.557 Y137.472 E17.05124
G1 X80.548 Y137.139 E17.06232
G1 X80.544 Y136.853 E17.07184
G1 X80.544 Y60.156 E19.62279
G1 X80.545 Y60.013 E19.62755
G1 X80.554 Y59.348 E19.64967
G1 X80.606 Y58.428 E19.68031
G1 X80.738 Y57.517 E19.71093
G1 X80.949 Y56.621 E19.74155
G1 X81.236 Y55.746 E19.77217
G1 X81.599 Y54.9 E19.80279
G1 X82.033 Y54.088 E19.83342
G1 X82.536 Y53.317 E19.86403
G0 F9000 X82.932 Y53.453
G1 F2400 X83.499 Y52.749 E19.8941
G1 X84.125 Y52.099 E19.92411
G1 X84.806 Y51.506 E19.95415
G1 X85.538 Y50.976 E19.98421
G1 X86.313 Y50.513 E20.01423
G1 X87.126 Y50.12 E20.04427
G1 X87.971 Y49.8 E20.07432
G1 X88.84 Y49.557 E20.10433
G1 X89.728 Y49.391 E20.13438
G1 X90.867 Y49.295 E20.1724
G1 X91.188 Y49.286 E20.18308
G1 X91.474 Y49.282 E20.19259
G1 X128.149 Y49.282 E21.4124
G1 X128.295 Y49.283 E21.41726
G1 X128.993 Y49.293 E21.44048
G1 X129.895 Y49.346 E21.47053
G1 X130.788 Y49.478 E21.50055
G1 X131.666 Y49.689 E21.53059
G1 X132.522 Y49.977 E21.56063
G1 X133.349 Y50.339 E21.59065
G1 X134.141 Y50.774 E21.62071
G1 X134.892 Y51.276 E21.65075
G1 X135.595 Y51.843 E21.68079
G1 X136.245 Y52.47 E21.71083
G1 X136.837 Y53.152 E21.74087
G1 X137.367 Y53.883 E21.7709
G1 X137.829 Y54.659 E21.80094
G1 X138.222 Y55.472 E21.83097
G1 X138.54 Y56.317 E21.861
G1 X138.783 Y57.187 E21.89104
G1 X138.948 Y58.075 E21.92108
G1 X139.043 Y59.205 E21.9588
G1 X139.052 Y59.525 E21.96945
G1 X139.056 Y59.812 E21.97899
G1 X139.056 Y136.459 E24.52828
G1 X139.055 Y136.585 E24.53247
G1 X139.046 Y137.312 E24.55666
G1 X138.995 Y138.214 E24.5867
G1 X138.864 Y139.108 E24.61676
G1 X138.655 Y139.986 E24.64678
G1 X138.369 Y140.843 E24.67682
G1 X138.008 Y141.671 E24.70687
G1 X137.576 Y142.463 E24.73687
G1 X137.075 Y143.215 E24.76693
G1 X136.509 Y143.919 E24.79697
G1 X135.884 Y144.57 E24.82699
G1 X135.203 Y145.164 E24.85704
G1 X134.472 Y145.695 E24.88709
G1 X133.698 Y146.159 E24.91711
G1 X132.885 Y146.553 E24.94716
G1 X132.041 Y146.873 E24.97718
G1 X131.171 Y147.118 E25.00724
G1 X130.284 Y147.284 E25.03725
G1 X129.133 Y147.382 E25.07568
G1 X128.812 Y147.391 E25.08636
G1 X128.526 Y147.395 E25.09587
G1 X91.851 Y147.395 E26.31569
G1 X91.719 Y147.394 E26.32008
G1 X91.021 Y147.385 E26.34329
G1 X90.12 Y147.334 E26.37331
G1 X89.226 Y147.202 E26.40337
G1 X88.348 Y146.993 E26.43338
G1 X87.491 Y146.706 E26.46344
G1 X86.664 Y146.345 E26.49346
G1 X85.871 Y145.912 E26.52351
G1 X85.12 Y145.411 E26.55353
G1 X84.416 Y144.845 E26.58358
G1 X83.765 Y144.219 E26.61362
G1 X83.172 Y143.538 E26.64365
G1 X82.642 Y142.807 E26.67368
G1 X82.178 Y142.032 E26.70372
G1 X81.784 Y141.219 E26.73377
G1 X81.464 Y140.375 E26.7638
G1 X81.22 Y139.505 E26.79385
G1 X81.054 Y138.617 E26.82389
G1 X80.957 Y137.462 E26.86245
G1 X80.948 Y137.129 E26.87352
G1 X80.944 Y136.853 E26.88271
G1 X80.944 Y60.156 E29.43366
G1 X80.945 Y60.018 E29.43825
G1 X80.954 Y59.353 E29.46037
G1 X81.006 Y58.451 E29.49042
G1 X81.138 Y57.558 E29.52044
G1 X81.348 Y56.68 E29.55047
G1 X81.635 Y55.823 E29.58053
G1 X81.997 Y54.996 E29.61055
G1 X82.43 Y54.204 E29.64058
G1 X82.932 Y53.453 E29.67062
G1 F2700 E24.67062
;MESH:CaseTOP_V3.stl
G0 F9000 X90.516 Y60.233
G0 X104.38 Y72.628
G0 X104.451 Y72.691
G0 X103.017 Y72.692
G0 X103.359 Y82.995
G0 X116.615 Y83.168
;TYPE:WALL-INNER
G1 F2700 E29.67062
G1 F2400 X116.814 Y83.168 E29.67724
G1 X116.814 Y82.969 E29.68152
G1 X116.814 Y69.54 E30.12817
G1 X103.385 Y69.54 E30.57482
G1 X103.186 Y69.54 E30.58144
G1 X103.186 Y69.739 E30.58572
G1 X103.187 Y83.167 E31.03234
G1 X116.615 Y83.168 E31.47896
G0 F9000 X116.414 Y82.768
;TYPE:WALL-OUTER
G1 F2400 X116.414 Y69.94 E31.90562
G1 X103.586 Y69.94 E32.33228
G1 X103.587 Y82.767 E32.75891
G1 X116.414 Y82.768 E33.18554
G1 F2700 E28.18554
G0 F9000 X116.413 Y83.067
G0 X116.57 Y83.358
G0 X115.561 Y81.915
G0 X115.56 Y81.983
G0 X115.514 Y91.271
G0 X115.514 Y91.34
G0 X116.57 Y89.897
G0 X116.568 Y103.621
;TYPE:WALL-INNER
G1 F2700 E33.18554
G1 F2400 X116.767 Y103.621 E33.19215
G1 X116.767 Y103.422 E33.19644
G1 X116.767 Y90.087 E33.63996
G1 X103.432 Y90.087 E34.08348
G1 X103.233 Y90.087 E34.0901
G1 X103.233 Y90.286 E34.09439
G1 X103.234 Y103.62 E34.53788
G1 X116.568 Y103.621 E34.98137
G0 F9000 X116.367 Y103.221
;TYPE:WALL-OUTER
G1 F2400 X116.367 Y90.487 E35.4049
G1 X103.633 Y90.487 E35.82844
G1 X103.634 Y103.22 E36.25194
G1 X116.367 Y103.221 E36.67544
G1 F2700 E31.67544
G0 F9000 X116.366 Y103.52
G0 X114.84 Y103.791
G0 X114.84 Y102.355
G0 X114.777 Y102.394
G0 X103.132 Y109.94
G0 X103.038 Y110.003
G0 X103.038 Y108.548
G0 X97.572 Y108.91
G0 X97.4 Y133.938
;TYPE:WALL-INNER
G1 F2700 E36.67544
G1 F2400 X122.6 Y133.938 E37.51359
G1 X122.6 Y108.738 E38.35175
G1 X97.4 Y108.738 E39.1899
G1 X97.4 Y133.938 E40.02806
G0 F9000 X97.8 Y133.538
;TYPE:WALL-OUTER
G1 F2400 X122.2 Y133.538 E40.83961
G1 X122.2 Y109.138 E41.65115
G1 X97.8 Y109.138 E42.4627
G1 X97.8 Y133.538 E43.27425
G1 F2700 E38.27425
G0 F9000 X97.5 Y133.538
G0 X97.204 Y134.134
G0 X97.204 Y136.385
G0 X91.744 Y136.595
;TYPE:WALL-INNER
G1 F2700 E43.27425
G1 F2400 X91.744 Y60.082 E45.81908
G1 X128.256 Y60.082 E47.03348
G1 X128.256 Y136.595 E49.57831
G1 X91.744 Y136.595 E50.7927
G0 F9000 X91.344 Y136.995
;TYPE:WALL-OUTER
G1 F2400 X91.344 Y59.682 E53.36414
G1 X128.656 Y59.682 E54.60515
G1 X128.656 Y136.995 E57.17659
G1 X91.344 Y136.995 E58.41759
G0 F9000 X91.614 Y136.725
G0 X91.854 Y136.205
G0 X92.134 Y136.205
;TYPE:SKIN
G1 F2400 X92.134 Y60.472 E60.93648
G1 X127.866 Y60.472 E62.12493
G1 X127.866 Y136.205 E64.64382
G1 X92.134 Y136.205 E65.83227
G1 F2700 E60.83227
G0 F9000 X91.854 Y136.205
G0 X91.949 Y136.209
G0 X97.29 Y136.385
G0 X97.29 Y134.128
G0 X97.01 Y134.328
G1 F2700 E65.83227
G1 F2400 X122.99 Y134.328 E66.69637
G1 X122.99 Y108.348 E67.56047
G1 X97.01 Y108.348 E68.42457
G1 X97.01 Y134.328 E69.28866
G1 F2700 E64.28866
G0 F9000 X97.29 Y134.078
G0 X97.572 Y108.91
G0 X103.124 Y108.548
G0 X103.124 Y110.003
G0 X103.138 Y109.922
G0 X104.474 Y102.434
G0 X104.487 Y102.367
G0 X103.125 Y103.811
G0 X103.124 Y103.761
G0 X102.844 Y104.01
G1 F2700 E69.28866
G1 F2400 X117.157 Y104.011 E69.76472
G1 X117.157 Y89.697 E70.2408
G1 X102.843 Y89.697 E70.71689
G1 X102.844 Y104.01 E71.19294
G1 F2700 E66.19294
G0 F9000 X103.124 Y103.761
G0 X103.064 Y93.145
G0 X104.498 Y93.144
G0 X104.487 Y91.316
G0 X104.439 Y81.981
G0 X104.44 Y81.914
G0 X103.078 Y83.358
G0 X103.077 Y83.308
G0 X102.797 Y83.557
G1 F2700 E71.19294
G1 F2400 X117.204 Y83.558 E71.67212
G1 X117.204 Y69.15 E72.15133
G1 X102.796 Y69.15 E72.63054
G1 X102.797 Y83.557 E73.10972
G1 F2700 E68.10972
G0 F9000 X103.077 Y83.308
G0 X103.017 Y81.24
G0 X104.451 Y81.239
G0 X110.316 Y70.767
G0 X116.967 Y58.891
G0 X117.01 Y58.817
G0 X117.01 Y60.292
G0 X127.383 Y60.192
G0 X127.383 Y60.632
G1 F2700 E73.10972
G1 F2400 X127.706 Y60.955 E73.12491
G0 F9000 X127.706 Y61.521
G1 F2400 X126.817 Y60.632 E73.16673
G0 F9000 X126.251 Y60.632
G1 F2400 X127.706 Y62.086 E73.23515
G0 F9000 X127.706 Y62.652
G1 F2400 X125.686 Y60.632 E73.33016
G0 F9000 X125.12 Y60.632
G1 F2400 X127.706 Y63.218 E73.4518
G0 F9000 X127.706 Y63.783
G1 F2400 X124.554 Y60.632 E73.60003
G0 F9000 X123.989 Y60.632
G1 F2400 X127.706 Y64.349 E73.77487
G0 F9000 X127.706 Y64.915
G1 F2400 X123.423 Y60.632 E73.97633
G0 F9000 X122.857 Y60.632
G1 F2400 X127.706 Y65.48 E74.20439
G0 F9000 X127.706 Y66.046
G1 F2400 X122.291 Y60.632 E74.45907
G0 F9000 X121.726 Y60.632
G1 F2400 X127.706 Y66.612 E74.74035
G0 F9000 X127.706 Y67.177
G1 F2400 X121.16 Y60.632 E75.04823
G0 F9000 X120.594 Y60.632
G1 F2400 X127.706 Y67.743 E75.38273
G0 F9000 X127.706 Y68.309
G1 F2400 X120.029 Y60.632 E75.74384
G0 F9000 X119.463 Y60.632
G1 F2400 X127.706 Y68.875 E76.13156
G0 F9000 X127.706 Y69.44
G1 F2400 X118.897 Y60.632 E76.54589
G0 F9000 X118.332 Y60.632
G1 F2400 X127.706 Y70.006 E76.98681
G0 F9000 X127.706 Y70.572
G1 F2400 X117.766 Y60.632 E77.45436
G0 F9000 X117.2 Y60.632
G1 F2400 X127.706 Y71.137 E77.9485
G0 F9000 X127.706 Y71.703
G1 F2400 X116.635 Y60.632 E78.46925
G0 F9000 X116.069 Y60.632
G1 F2400 X127.706 Y72.269 E79.01662
G0 F9000 X127.706 Y72.834
G1 F2400 X115.503 Y60.632 E79.59059
G0 F9000 X114.938 Y60.632
G1 F2400 X127.706 Y73.4 E80.19116
G0 F9000 X127.706 Y73.966
G1 F2400 X114.372 Y60.632 E80.81835
G0 F9000 X113.806 Y60.632
G1 F2400 X127.706 Y74.531 E81.47214
G0 F9000 X127.706 Y75.097
G1 F2400 X113.241 Y60.632 E82.15252
G0 F9000 X112.675 Y60.632
G1 F2400 X127.706 Y75.663 E82.85954
G0 F9000 X127.706 Y76.228
G1 F2400 X112.109 Y60.632 E83.59315
G0 F9000 X111.543 Y60.632
G1 F2400 X127.706 Y76.794 E84.35338
G0 F9000 X127.706 Y77.36
G1 F2400 X110.978 Y60.632 E85.14022
G0 F9000 X110.412 Y60.632
G1 F2400 X127.706 Y77.925 E85.95365
G0 F9000 X127.706 Y78.491
G1 F2400 X109.846 Y60.632 E86.79371
G0 F9000 X109.281 Y60.632
G1 F2400 X127.706 Y79.057 E87.66036
G0 F9000 X127.706 Y79.623
G1 F2400 X117.363 Y69.28 E88.14686
G0 F9000 X117.072 Y68.989
G1 F2400 X108.715 Y60.632 E88.53995
G0 F9000 X108.149 Y60.632
G1 F2400 X116.507 Y68.989 E88.93306
G0 F9000 X115.941 Y68.989
G1 F2400 X107.584 Y60.632 E89.32615
G0 F9000 X107.018 Y60.632
G1 F2400 X115.375 Y68.989 E89.71924
G0 F9000 X114.81 Y68.989
G1 F2400 X106.452 Y60.632 E90.11235
G0 F9000 X105.887 Y60.632
G1 F2400 X114.244 Y68.989 E90.50544
G0 F9000 X113.678 Y68.989
G1 F2400 X105.321 Y60.632 E90.89853
G0 F9000 X104.755 Y60.632
G1 F2400 X113.113 Y68.989 E91.29164
G0 F9000 X112.547 Y68.989
G1 F2400 X104.19 Y60.632 E91.68472
G0 F9000 X103.624 Y60.632
G1 F2400 X111.981 Y68.989 E92.07781
G0 F9000 X111.415 Y68.989
G1 F2400 X103.058 Y60.632 E92.4709
G0 F9000 X102.493 Y60.632
G1 F2400 X110.85 Y68.989 E92.86399
G0 F9000 X110.284 Y68.989
G1 F2400 X101.927 Y60.632 E93.25707
G0 F9000 X101.361 Y60.632
G1 F2400 X109.718 Y68.989 E93.65016
G0 F9000 X109.153 Y68.989
G1 F2400 X100.795 Y60.632 E94.04327
G0 F9000 X100.23 Y60.632
G1 F2400 X108.587 Y68.989 E94.43636
G0 F9000 X108.021 Y68.989
G1 F2400 X99.664 Y60.632 E94.82945
G0 F9000 X99.098 Y60.632
G1 F2400 X107.456 Y68.989 E95.22256
G0 F9000 X106.89 Y68.989
G1 F2400 X98.533 Y60.632 E95.61565
G0 F9000 X97.967 Y60.632
G1 F2400 X106.324 Y68.989 E96.00874
G0 F9000 X105.759 Y68.989
