;FLAVOR:Marlin
;TIME:7065
;Filament used: 3.61864m
;Layer height: 0.16
;MINX:82.682
;MINY:52.02
;MINZ:0.2
;MAXX:137.318
;MAXY:146.657
;MAXZ:8.92
;Generated with Cura_SteamEngine 4.4.0
M140 S60
M105
M190 S60
M104 S200
M105
M109 S200
M82 ;absolute extrusion mode
M201 X500.00 Y500.00 Z100.00 E5000.00 ;Setup machine max acceleration
M203 X500.00 Y500.00 Z10.00 E50.00 ;Setup machine max feedrate
M204 P500.00 R1000.00 T500.00 ;Setup Print/Retract/Travel acceleration
M205 X8.00 Y8.00 Z0.40 E5.00 ;Setup Jerk
M220 S100 ;Reset Feedrate
M221 S100 ;Reset Flowrate

G28 ;Home

G92 E0 ;Reset Extruder
G1 Z2.0 F3000 ;Move Z Axis up
G1 X10.1 Y20 Z0.28 F5000.0 ;Move to start position
G1 X10.1 Y200.0 Z0.28 F1500.0 E15 ;Draw the first line
G1 X10.4 Y200.0 Z0.28 F5000.0 ;Move to side a little
G1 X10.4 Y20 Z0.28 F1500.0 E30 ;Draw the second line
G92 E0 ;Reset Extruder
G1 Z2.0 F3000 ;Move Z Axis up

G92 E0
G92 E0
G1 F1500 E-6.5
;LAYER_COUNT:57
;LAYER:0
M107
G0 F6000 X84.678 Y56.723 Z0.2
;TYPE:SKIRT
G1 F1500 E0
G1 F1200 X85.248 Y55.978 E0.0312
G1 X85.88 Y55.284 E0.06242
G1 X86.568 Y54.647 E0.0936
G1 X87.308 Y54.071 E0.12479
G1 X88.094 Y53.559 E0.15599
G1 X88.921 Y53.117 E0.18718
G1 X89.783 Y52.747 E0.21838
G1 X90.673 Y52.451 E0.24958
G1 X91.585 Y52.233 E0.28077
G1 X92.512 Y52.092 E0.31195
G1 X93.383 Y52.033 E0.34099
G1 X93.704 Y52.024 E0.35167
G1 X94.012 Y52.02 E0.36191
G1 X125.611 Y52.02 E1.4129
G1 X125.769 Y52.021 E1.41816
G1 X126.467 Y52.031 E1.44137
G1 X127.403 Y52.085 E1.47256
G1 X128.331 Y52.217 E1.50373
G1 X129.245 Y52.429 E1.53494
G1 X130.137 Y52.718 E1.56613
G1 X131.002 Y53.081 E1.59733
G1 X131.832 Y53.517 E1.62851
G1 X132.623 Y54.022 E1.65972
G1 X133.367 Y54.593 E1.69092
G1 X134.06 Y55.225 E1.72211
G1 X134.697 Y55.913 E1.7533
G1 X135.272 Y56.654 E1.78449
G1 X135.783 Y57.44 E1.81567
G1 X136.225 Y58.268 E1.84689
G1 X136.594 Y59.13 E1.87808
G1 X136.889 Y60.02 E1.90926
G1 X137.107 Y60.932 E1.94045
G1 X137.247 Y61.86 E1.97167
G1 X137.305 Y62.721 E2.00037
G1 X137.314 Y63.041 E2.01101
G1 X137.318 Y63.35 E2.02129
G1 X137.317 Y89.961 E2.90638
G1 X137.318 Y134.92 E4.40172
G1 X137.317 Y135.072 E4.40678
G1 X137.307 Y135.798 E4.43093
G1 X137.254 Y136.734 E4.46211
G1 X137.122 Y137.662 E4.49328
G1 X136.911 Y138.576 E4.52448
G1 X136.622 Y139.469 E4.5557
G1 X136.259 Y140.333 E4.58687
G1 X135.824 Y141.164 E4.61807
G1 X135.319 Y141.955 E4.64928
G1 X134.749 Y142.699 E4.68045
G1 X134.118 Y143.393 E4.71165
G1 X133.429 Y144.03 E4.74286
G1 X132.689 Y144.606 E4.77405
G1 X131.903 Y145.117 E4.80523
G1 X131.076 Y145.559 E4.83642
G1 X130.214 Y145.929 E4.86762
G1 X129.324 Y146.225 E4.89882
G1 X128.412 Y146.443 E4.93
G1 X127.484 Y146.583 E4.96122
G1 X126.659 Y146.64 E4.98872
G1 X126.346 Y146.65 E4.99914
G1 X125.995 Y146.656 E5.01081
G1 X94.392 Y146.657 E6.06193
G1 X94.251 Y146.656 E6.06662
G1 X93.551 Y146.647 E6.08991
G1 X92.614 Y146.595 E6.12112
G1 X91.686 Y146.463 E6.1523
G1 X90.772 Y146.253 E6.18349
G1 X89.879 Y145.966 E6.21469
G1 X89.014 Y145.604 E6.24587
G1 X88.183 Y145.169 E6.27707
G1 X87.392 Y144.665 E6.30827
G1 X86.646 Y144.096 E6.33947
G1 X85.953 Y143.465 E6.37064
G1 X85.315 Y142.777 E6.40185
G1 X84.738 Y142.037 E6.43306
G1 X84.226 Y141.252 E6.46423
G1 X83.783 Y140.425 E6.49544
G1 X83.412 Y139.563 E6.52665
G1 X83.116 Y138.674 E6.55782
G1 X82.897 Y137.762 E6.58901
G1 X82.756 Y136.834 E6.62023
G1 X82.696 Y135.955 E6.64953
G1 X82.686 Y135.597 E6.66145
G1 X82.682 Y135.29 E6.67166
G1 X82.682 Y63.694 E9.05295
G1 X82.683 Y63.545 E9.05791
G1 X82.692 Y62.88 E9.08003
G1 X82.745 Y61.944 E9.11121
G1 X82.877 Y61.015 E9.14242
G1 X83.088 Y60.101 E9.17362
G1 X83.376 Y59.209 E9.20479
G1 X83.739 Y58.344 E9.23599
G1 X84.174 Y57.513 E9.26719
G1 X84.678 Y56.723 E9.29836
G0 F6000 X85.074 Y56.855
G1 F1200 X85.643 Y56.131 E9.32898
G1 X86.271 Y55.459 E9.35958
G1 X86.956 Y54.843 E9.39022
G1 X87.692 Y54.29 E9.42084
G1 X88.473 Y53.802 E9.45147
G1 X89.293 Y53.384 E9.48208
G1 X90.147 Y53.039 E9.51271
G1 X91.027 Y52.769 E9.54333
G1 X91.927 Y52.577 E9.57394
G1 X92.841 Y52.463 E9.60457
G1 X93.394 Y52.433 E9.62299
G1 X93.715 Y52.424 E9.63367
G1 X94.012 Y52.42 E9.64355
G1 X125.611 Y52.42 E10.69454
G1 X125.763 Y52.421 E10.69959
G1 X126.461 Y52.431 E10.72281
G1 X127.38 Y52.484 E10.75343
G1 X128.291 Y52.617 E10.78405
G1 X129.187 Y52.828 E10.81467
G1 X130.061 Y53.116 E10.84527
G1 X130.908 Y53.479 E10.87592
G1 X131.719 Y53.914 E10.90653
G1 X132.489 Y54.418 E10.93714
G1 X133.213 Y54.987 E10.96777
G1 X133.885 Y55.617 E10.9984
G1 X134.5 Y56.302 E11.02902
G1 X135.053 Y57.038 E11.05964
G1 X135.54 Y57.819 E11.09025
G1 X135.957 Y58.64 E11.12088
G1 X136.302 Y59.494 E11.15152
G1 X136.571 Y60.374 E11.18212
G1 X136.763 Y61.275 E11.21276
G1 X136.876 Y62.188 E11.24336
G1 X136.905 Y62.732 E11.26148
G1 X136.914 Y63.052 E11.27213
G1 X136.918 Y63.35 E11.28204
G1 X136.917 Y89.961 E12.16712
G1 X136.918 Y134.92 E13.66247
G1 X136.917 Y135.066 E13.66732
G1 X136.907 Y135.792 E13.69147
G1 X136.854 Y136.711 E13.72209
G1 X136.722 Y137.622 E13.75271
G1 X136.511 Y138.518 E13.78332
G1 X136.224 Y139.393 E13.81395
G1 X135.861 Y140.239 E13.84457
G1 X135.427 Y141.051 E13.87519
G1 X134.923 Y141.822 E13.90583
G1 X134.355 Y142.546 E13.93643
G1 X133.726 Y143.218 E13.96705
G1 X133.041 Y143.833 E13.99767
G1 X132.305 Y144.387 E14.02831
G1 X131.524 Y144.874 E14.05892
G1 X130.703 Y145.292 E14.08956
G1 X129.85 Y145.637 E14.12016
G1 X128.97 Y145.906 E14.15077
G1 X128.069 Y146.099 E14.18142
G1 X127.156 Y146.212 E14.21202
G1 X126.646 Y146.241 E14.22901
G1 X126.333 Y146.251 E14.23942
G1 X125.995 Y146.256 E14.25066
G1 X94.392 Y146.257 E15.30178
G1 X94.256 Y146.256 E15.30631
G1 X93.556 Y146.247 E15.32959
G1 X92.637 Y146.195 E15.36021
G1 X91.725 Y146.064 E15.39085
G1 X90.829 Y145.854 E15.42146
G1 X89.954 Y145.567 E15.45209
G1 X89.108 Y145.205 E15.48269
G1 X88.295 Y144.771 E15.51335
G1 X87.524 Y144.269 E15.54395
G1 X86.799 Y143.701 E15.57458
G1 X86.127 Y143.073 E15.60517
G1 X85.511 Y142.388 E15.63581
G1 X84.957 Y141.653 E15.66642
G1 X84.469 Y140.872 E15.69705
G1 X84.05 Y140.052 E15.72768
G1 X83.704 Y139.199 E15.7583
G1 X83.434 Y138.319 E15.78891
G1 X83.241 Y137.419 E15.81953
G1 X83.127 Y136.505 E15.85016
G1 X83.096 Y135.944 E15.86885
G1 X83.086 Y135.586 E15.88076
G1 X83.082 Y135.29 E15.89061
G1 X83.082 Y63.694 E18.2719
G1 X83.083 Y63.551 E18.27666
G1 X83.092 Y62.886 E18.29878
G1 X83.144 Y61.966 E18.32943
G1 X83.276 Y61.055 E18.36004
G1 X83.487 Y60.159 E18.39066
G1 X83.774 Y59.284 E18.42129
G1 X84.137 Y58.438 E18.45191
G1 X84.571 Y57.626 E18.48253
G1 X85.074 Y56.855 E18.51315
G0 F6000 X85.47 Y56.991
G1 F1200 X86.037 Y56.287 E18.54321
G1 X86.663 Y55.637 E18.57323
G1 X87.344 Y55.044 E18.60326
G1 X88.076 Y54.514 E18.63332
G1 X88.851 Y54.051 E18.66334
G1 X89.664 Y53.658 E18.69338
G1 X90.509 Y53.338 E18.72343
G1 X91.378 Y53.095 E18.75344
G1 X92.266 Y52.929 E18.78349
G1 X93.405 Y52.833 E18.82151
G1 X93.726 Y52.824 E18.83219
G1 X94.012 Y52.82 E18.8417
G1 X125.611 Y52.82 E19.89269
G1 X125.757 Y52.821 E19.89754
G1 X126.455 Y52.831 E19.92076
G1 X127.357 Y52.884 E19.95081
G1 X128.25 Y53.016 E19.98084
G1 X129.128 Y53.227 E20.01087
G1 X129.984 Y53.515 E20.04091
G1 X130.811 Y53.877 E20.07094
G1 X131.603 Y54.312 E20.10099
G1 X132.354 Y54.814 E20.13104
G1 X133.057 Y55.381 E20.16108
G1 X133.707 Y56.008 E20.19111
G1 X134.299 Y56.69 E20.22115
G1 X134.829 Y57.421 E20.25118
G1 X135.291 Y58.197 E20.28122
G1 X135.684 Y59.01 E20.31125
G1 X136.002 Y59.855 E20.34128
G1 X136.245 Y60.725 E20.37133
G1 X136.41 Y61.613 E20.40137
G1 X136.505 Y62.743 E20.43908
G1 X136.514 Y63.063 E20.44973
G1 X136.518 Y63.35 E20.45928
G1 X136.517 Y89.961 E21.34436
G1 X136.518 Y134.92 E22.83971
G1 X136.517 Y135.06 E22.84436
G1 X136.507 Y135.786 E22.86851
G1 X136.455 Y136.688 E22.89856
G1 X136.323 Y137.581 E22.92859
G1 X136.112 Y138.46 E22.95865
G1 X135.825 Y139.316 E22.98868
G1 X135.463 Y140.143 E23.01871
G1 X135.029 Y140.935 E23.04874
G1 X134.527 Y141.686 E23.07879
G1 X133.961 Y142.39 E23.10883
G1 X133.334 Y143.04 E23.13887
G1 X132.653 Y143.633 E23.1689
G1 X131.921 Y144.162 E23.19894
G1 X131.146 Y144.626 E23.22899
G1 X130.333 Y145.018 E23.25901
G1 X129.488 Y145.338 E23.28906
G1 X128.618 Y145.581 E23.3191
G1 X127.731 Y145.746 E23.34911
G1 X126.634 Y145.841 E23.38573
G1 X126.321 Y145.851 E23.39615
G1 X125.995 Y145.856 E23.40699
G1 X94.392 Y145.857 E24.45811
G1 X94.261 Y145.856 E24.46247
G1 X93.561 Y145.847 E24.48575
G1 X92.659 Y145.796 E24.5158
G1 X91.766 Y145.664 E24.54583
G1 X90.887 Y145.455 E24.57588
G1 X90.031 Y145.168 E24.60591
G1 X89.203 Y144.807 E24.63595
G1 X88.411 Y144.374 E24.66597
G1 X87.659 Y143.873 E24.69603
G1 X86.955 Y143.307 E24.72607
G1 X86.304 Y142.681 E24.75611
G1 X85.711 Y142 E24.78614
G1 X85.181 Y141.269 E24.81617
G1 X84.717 Y140.494 E24.84622
G1 X84.323 Y139.681 E24.87627
G1 X84.003 Y138.837 E24.90629
G1 X83.759 Y137.968 E24.93631
G1 X83.593 Y137.08 E24.96635
G1 X83.496 Y135.933 E25.00464
G1 X83.486 Y135.575 E25.01655
G1 X83.482 Y135.29 E25.02603
G1 X83.482 Y63.694 E27.40732
G1 X83.483 Y63.556 E27.41191
G1 X83.492 Y62.891 E27.43403
G1 X83.544 Y61.989 E27.46408
G1 X83.676 Y61.096 E27.49411
G1 X83.886 Y60.218 E27.52413
G1 X84.173 Y59.361 E27.55419
G1 X84.535 Y58.534 E27.58422
G1 X84.968 Y57.742 E27.61424
G1 X85.47 Y56.991 E27.64429
G1 F1500 E21.14429
;MESH:CaseTOP.stl
G0 F6000 X104.451 Y73.591
G0 X102.617 Y73.592
G0 X103.359 Y83.495
G0 X117.015 Y84.068
;TYPE:WALL-INNER
G1 F1500 E27.64429
G1 F1200 X117.214 Y84.068 E27.65091
G1 X117.214 Y83.869 E27.65519
G1 X117.214 Y70.64 E28.09519
G1 X102.985 Y70.64 E28.56845
G1 X102.786 Y70.64 E28.57506
G1 X102.786 Y70.839 E28.57935
G1 X102.787 Y84.067 E29.01931
G1 X117.015 Y84.068 E29.49254
G0 F6000 X116.814 Y83.668
G1 F1200 X116.814 Y83.469 E29.49916
G1 X116.814 Y71.04 E29.91255
G1 X103.385 Y71.04 E30.3592
G1 X103.186 Y71.04 E30.36581
G1 X103.186 Y71.239 E30.3701
G1 X103.187 Y83.667 E30.78345
G1 X116.615 Y83.668 E31.23007
G1 X116.814 Y83.668 E31.23435
G0 F6000 X116.414 Y83.268
;TYPE:WALL-OUTER
G1 F1200 X116.414 Y71.44 E31.62775
G1 X103.586 Y71.44 E32.05442
G1 X103.587 Y83.267 E32.44778
G1 X116.414 Y83.268 E32.87441
G1 F1500 E26.37441
G0 F6000 X116.413 Y83.567
G0 X115.287 Y84.238
G0 X115.287 Y82.402
G0 X115.502 Y92.614
G0 X117.337 Y92.614
G0 X116.968 Y105.021
;TYPE:WALL-INNER
G1 F1500 E32.87441
G1 F1200 X117.167 Y105.021 E32.88103
G1 X117.167 Y104.822 E32.88531
G1 X117.167 Y90.687 E33.35544
G1 X103.032 Y90.687 E33.82558
G1 X102.833 Y90.687 E33.83219
G1 X102.833 Y90.886 E33.83648
G1 X102.834 Y105.02 E34.30658
G1 X116.968 Y105.021 E34.77667
G0 F6000 X116.767 Y104.621
G1 F1200 X116.767 Y104.422 E34.78329
G1 X116.767 Y91.087 E35.22682
G1 X103.432 Y91.087 E35.67034
G1 X103.233 Y91.087 E35.67696
G1 X103.233 Y91.286 E35.68124
G1 X103.234 Y104.62 E36.12473
G1 X116.568 Y104.621 E36.56822
G1 X116.767 Y104.621 E36.57251
G0 F6000 X116.367 Y104.221
;TYPE:WALL-OUTER
G1 F1200 X116.367 Y91.487 E36.99604
G1 X103.633 Y91.487 E37.41957
G1 X103.634 Y104.22 E37.84308
G1 X116.367 Y104.221 E38.26658
G1 F1500 E31.76658
G0 F6000 X116.366 Y104.52
G0 X113.103 Y105.191
G0 X113.103 Y103.355
G0 X102.638 Y111.003
G0 X102.638 Y109.128
G0 X102.48 Y109.896
G0 X97.572 Y109.91
G0 X97.4 Y134.938
;TYPE:WALL-INNER
G1 F1500 E38.26658
G1 F1200 X113.974 Y134.938 E38.81783
G1 X122.6 Y134.938 E39.10473
G1 X122.6 Y109.738 E39.94289
G1 X97.4 Y109.738 E40.78104
G1 X97.4 Y134.938 E41.6192
G0 F6000 X97.8 Y134.538
;TYPE:WALL-OUTER
G1 F1200 X122.2 Y134.538 E42.43075
G1 X122.2 Y110.138 E43.24229
G1 X97.8 Y110.138 E44.05384
G1 X97.8 Y134.538 E44.86539
G0 F6000 X97.5 Y134.538
G0 X97.572 Y134.766
G0 X122.428 Y134.766
G0 X125.318 Y134.657
;TYPE:WALL-INNER
G1 F1200 X125.119 Y134.657 E44.87201
G1 X123 Y134.657 E44.94248
G1 X123 Y109.338 E45.7846
G1 X97 Y109.338 E46.64936
G1 X97 Y134.657 E47.49148
G1 X94.682 Y134.657 E47.56857
G1 X94.682 Y64.02 E49.91797
G1 X125.119 Y64.02 E50.93031
G1 X125.318 Y64.02 E50.93693
G1 X125.318 Y64.219 E50.94121
G1 X125.317 Y89.961 E51.79739
G1 X125.318 Y134.458 E53.27737
G1 X125.318 Y134.657 E53.28165
G0 F6000 X125.718 Y134.858
G1 F1200 X125.718 Y135.057 E53.28827
G1 X125.519 Y135.057 E53.29255
G1 X122.6 Y135.057 E53.38964
G1 X113.974 Y135.056 E53.47484
G1 X97.401 Y135.056 E53.63785
G1 X94.481 Y135.057 E53.73497
G1 X94.282 Y135.057 E53.74159
G1 X94.282 Y134.858 E53.74587
G1 X94.282 Y63.62 E56.11526
G1 X125.519 Y63.62 E57.1542
G1 X125.718 Y63.62 E57.16082
G1 X125.718 Y63.819 E57.1651
G1 X125.717 Y89.961 E58.03459
G1 X125.718 Y134.858 E59.52787
G0 F6000 X126.118 Y135.457
;TYPE:WALL-OUTER
G1 F1200 X113.974 Y135.456 E59.93178
G1 X93.882 Y135.457 E60.60004
G1 X93.882 Y63.22 E63.00266
G1 X126.118 Y63.22 E64.07483
G1 X126.117 Y89.961 E64.96424
G1 X126.118 Y135.457 E66.47744
G0 F6000 X125.848 Y135.187
G0 X125.208 Y134.267
G0 X124.928 Y134.267
;TYPE:SKIN
G1 F1200 X123.39 Y134.267 E66.5286
G1 X123.39 Y108.948 E67.37071
G1 X96.61 Y108.948 E68.26142
G1 X96.61 Y134.267 E69.10353
G1 X95.072 Y134.267 E69.15468
G1 X95.072 Y64.41 E71.47814
G1 X124.928 Y64.41 E72.47115
G1 X124.927 Y89.961 E73.32098
G1 X124.928 Y134.267 E74.79461
G1 F1500 E68.29461
G0 F6000 X125.208 Y134.267
G0 X125.136 Y134.475
G0 X123.182 Y134.475
G0 X122.428 Y109.91
G0 X117.277 Y109.128
G0 X117.277 Y111.003
G0 X115.24 Y103.355
G0 X115.24 Y105.191
G0 X117.277 Y105.161
G0 X117.557 Y105.411
G1 F1500 E74.79461
G1 F1200 X117.557 Y90.297 E75.2973
G1 X102.443 Y90.297 E75.79999
G1 X102.444 Y105.41 E76.30265
G1 X117.557 Y105.411 E76.80531
G1 F1500 E70.30531
G0 F6000 X117.277 Y105.161
G0 X117.337 Y94.751
G0 X115.502 Y94.751
G0 X115.287 Y82.402
G0 X115.287 Y84.238
G0 X117.324 Y84.208
G0 X117.604 Y84.458
G1 F1500 E76.80531
G1 F1200 X117.604 Y70.25 E77.27787
G1 X102.396 Y70.25 E77.78369
G1 X102.397 Y84.457 E78.25622
G1 X117.604 Y84.458 E78.76201
G1 F1500 E72.26201
G0 F6000 X117.324 Y84.208
G0 X117.384 Y81.115
G0 X115.549 Y81.115
G0 X126.983 Y70.446
G0 X125.127 Y70.446
G0 X125.207 Y64.805
G0 X124.767 Y64.804
G1 F1500 E78.76201
G1 F1200 X124.532 Y64.57 E78.77304
G0 F6000 X123.967 Y64.57
G1 F1200 X124.767 Y65.37 E78.81067
G0 F6000 X124.767 Y65.936
G1 F1200 X123.401 Y64.57 E78.87492
G0 F6000 X122.835 Y64.57
G1 F1200 X124.767 Y66.501 E78.96577
G0 F6000 X124.767 Y67.067
G1 F1200 X122.27 Y64.57 E79.08322
G0 F6000 X121.704 Y64.57
G1 F1200 X124.767 Y67.633 E79.2273
G0 F6000 X124.767 Y68.199
G1 F1200 X121.138 Y64.57 E79.39799
G0 F6000 X120.573 Y64.57
G1 F1200 X124.767 Y68.764 E79.59527
G0 F6000 X124.767 Y69.33
G1 F1200 X120.007 Y64.57 E79.81916
G0 F6000 X119.441 Y64.57
G1 F1200 X124.767 Y69.896 E80.06968
G0 F6000 X124.767 Y70.461
G1 F1200 X118.875 Y64.57 E80.3468
G0 F6000 X118.31 Y64.57
G1 F1200 X124.767 Y71.027 E80.65052
G0 F6000 X124.767 Y71.593
G1 F1200 X117.744 Y64.57 E80.98086
G0 F6000 X117.178 Y64.57
G1 F1200 X124.767 Y72.158 E81.3378
G0 F6000 X124.767 Y72.724
G1 F1200 X116.613 Y64.57 E81.72134
G0 F6000 X116.047 Y64.57
G1 F1200 X124.767 Y73.29 E82.1315
G0 F6000 X124.767 Y73.855
G1 F1200 X115.481 Y64.57 E82.56826
G0 F6000 X114.916 Y64.57
G1 F1200 X124.767 Y74.421 E83.03162
G0 F6000 X124.767 Y74.987
G1 F1200 X114.35 Y64.57 E83.5216
G0 F6000 X113.784 Y64.57
G1 F1200 X124.767 Y75.552 E84.03819
G0 F6000 X124.767 Y76.118
G1 F1200 X113.219 Y64.57 E84.58137
G0 F6000 X112.653 Y64.57
G1 F1200 X124.767 Y76.684 E85.15118
G0 F6000 X124.767 Y77.25
G1 F1200 X117.762 Y70.245 E85.48067
G0 F6000 X117.607 Y70.089
G1 F1200 X112.087 Y64.57 E85.74029
G0 F6000 X111.522 Y64.57
G1 F1200 X117.041 Y70.089 E85.99989
G0 F6000 X116.476 Y70.089
G1 F1200 X110.956 Y64.57 E86.25951
G0 F6000 X110.39 Y64.57
G1 F1200 X115.91 Y70.089 E86.51913
G0 F6000 X115.344 Y70.089
G1 F1200 X109.824 Y64.57 E86.77875
G0 F6000 X109.259 Y64.57
G1 F1200 X114.778 Y70.089 E87.03834
G0 F6000 X114.213 Y70.089
G1 F1200 X108.693 Y64.57 E87.29796
G0 F6000 X108.127 Y64.57
G1 F1200 X113.647 Y70.089 E87.55758
G0 F6000 X113.081 Y70.089
G1 F1200 X107.562 Y64.57 E87.81718
G0 F6000 X106.996 Y64.57
G1 F1200 X112.516 Y70.089 E88.0768
G0 F6000 X111.95 Y70.089
G1 F1200 X106.43 Y64.57 E88.33642
G0 F6000 X105.865 Y64.57
G1 F1200 X111.384 Y70.089 E88.59602
G0 F6000 X110.819 Y70.089
G1 F1200 X105.299 Y64.57 E88.85564
G0 F6000 X104.733 Y64.57
G1 F1200 X110.253 Y70.089 E89.11526
